X:1
T:Missa "Au travail suis"
T:Missa "Au travail suis" -3 Sanctus
T:Johannes Ockeghem
T:Ed. Charles Weaver
C:Johannes Ockeghem
%%score [ 1 2 3 4 ]
L:1/8
Q:1/4=95
M:4/4
K:C
V:1 treble nm="Superius" snm="S."
V:2 treble-8 nm="Altus" snm="A."
V:3 bass nm="Tenor" snm="T."
V:4 bass nm="Bassus" snm="B."
V:1
 z8 | z4 A4 | c4 B4 | E4 z4 | G4 A4 | F2 D2 E4 | D2 F2 G2 A2- | A2 c2 B2 A2- | A2 G4 ^F2 | G4 z4 | %10
w: |San-||ctus,|San- *||ctus, San- * *|||ctus|
 z8 | z8 | z8 | z4 A4- | A2 A2 A4 | A4 _B2 A2- | A2 F2 E4 | z4 G3 A | _B2 A4 F2- | F2 E2 F4 | %20
w: |||Do-|* mi- nus|De- * *|* * us|Sa- *|||
 G2 F2 A2 B2 | c4 A4 | z4 F4- | F2 D2 E4- | E2 F2 G2 FG | A2 c2 B2 A2- | AF G2 A3 G | %27
w: * * * ba-|oth. _|Ple-|* * ni|_ _ sunt * *|* cœ- * *||
 G2 E2 F2 E2- | E2 A3 G A2 | G2 E2 D4 | z2 E3 F G2- | GF/G/ A2 G2 c2- | c6 c2- | c6 B2- | %34
w: * * li et|_ ter- * *|* * ra|glo- * *|* * * * ri- a|_ tu-||
 B2 A4 ^G2 | A4 z4 | z8 | z8 | z8 | z8 | z8 | G8 | B8 | !fermata!c8 | A8 | A8- | A4 A4 | G8 | %48
w: |a.||||||Ho-|san-|na,|ho-|san-|* na|in|
 G6 E2 | E8 | F8 |] %51
w: _ ex-|cel-|sis|
V:2
 z8 | z8 | z8 | c4 f4 | e4 A4 | z4 c4 | d4 B2 c2 | A4 G2 F2 | G4 A4 | G4 z4 | z8 | z8 | z8 | %13
w: |||San- *|* ctus,|San-|||* ctus|_||||
 z4 z2 f2- | f2 f2 f4- | f4 z2 f2- | f2 d2 e2 c2- | c2 f3 d e2 | f4 z4 | z4 d4 | e2 f4 d2 | %21
w: Do-|* mi- nus|_ De-|||us|Sa-||
 c2 e2 f2 d2- | d2 c2 d4 | z4 c4- | c4 c4- | c4 d2 A2 | _B4 A4 | z4 A4 | G2 F2 A3 B | c2 c4 B2 | %30
w: * * * ba-|* * oth.|Ple-|* ni|_ sunt cœ-|li _|et|ter- * * *|* ra _|
 c8 | c4 c3 d | e2 f3 g a2- | a2 e3 c d2- | dA c2 B4 | A4 z4 | z8 | z8 | z8 | z8 | z8 | c8 | d8 | %43
w: _|glo- ri- *|* a _ _|_ tu- * *||a.||||||Ho-|san-|
 !fermata!e8 | f8 | f8 | f4 f4 | d6 c2 | c8- | c8 | d8 |] %51
w: na,|ho-|san-|na in|_ ex-|cel-||sis.|
V:3
 z8 | z8 | z8 | z8 | z8 | z8 | z4 z2 F,2- | F,4 G,2 D,2 | E,4 D,4 | z2 D,4 F,2 | E,2 D,2 A,2 A,2- | %11
w: ||||||San-||ctus, _|San- *|* * * ctus,|
 A,2 G,2 A,3 B, | C2 F,4 D,2 | C,4 z4 | C6 A,2 | C3 _B, G,2 F,2 | A,2 _B,2 C4 | A,2 F,2 G,4 | %18
w: _ San- * *||ctus|Do- *||mi- nus de-||
 F,4 z4 | z4 A,3 G, | E,2 D,2 F,2 G,2 | A,4 D,2 A,2- | A,2 G,2 A,4- | A,4 z4 | z8 | z8 | z8 | z8 | %28
w: us|Sa- *||* * ba-|* * oth.|_|||||
 z8 | z8 | z8 | z8 | z8 | z8 | z8 | z4 _B,4- | B,2 A,2 A,4 | G,2 A,4 F,2 | E,3 C, D,2 C,2- | %39
w: |||||||Glo-|* ri- a|tu- * *||
 C,2 F,4 A,2 | G,4 !fermata!F,4 | E,8 | G,8 | !fermata!A,8 | C8 | C8 | C4 C4 | B,6 G,2 | G,8 | %49
w: |* a.|Ho-|san-|na,|ho-|san-|na in|_ ex-|cel-|
 A,8 | A,8 |] %51
w: |sis.|
V:4
 D,4 F,4 | E,4 A,,4 | z4 G,4 | A,4 F,2 D,2 | E,4 D,2 C,2 | D,2 B,,2 A,,4 | z8 | z8 | z8 | %9
w: San- *|* tus,|San-|||* * ctus,||||
 G,,4 B,,4 | C,2 D,3 A,, C,2 | _B,,4 A,,4 | z4 A,3 B, | C4 F,4- | F,2 F,2 F,4 | F,4 E,2 F,2 | %16
w: San- *||ctus _|San- *|ctus Do-|* mi- nus|De- * *|
 D,4 C,4 | z2 C4 _B,2 | D2 C2 A,2 _B,2 | G,3 F, D,4 | C,2 D,4 B,,2 | A,,2 A,4 F,2 | E,4 D,4- | %23
w: * us|Sa- *|||||ba- oth.|
 D,4 z4 | z8 | z8 | z8 | z8 | z8 | z8 | z8 | z8 | z8 | z8 | z8 | z4 G,4- | G,2 F,2 F,4 | %37
w: _||||||||||||lo-|* ri- a|
 E,2 F,2 D,4 | C,4 B,,2 C,2 | E,2 D,3 C, F,2- | F,2 E,2 !fermata!F,4 | C,8 | B,,8 | !fermata!A,,8 | %44
w: tu- * *|||* * a.|Ho-|san-|na,|
 F,8 | F,8 | F,4 F,4 | G,6 E,2 | E,8 | A,,8 | D,8 |] %51
w: hp-|san-|na in|_ ex-|cel-||sis.|

